assets/header-logo.svg

<?xml version="1.0" encoding="UTF-8"?>
<svg width="1958px" height="361px" viewBox="0 0 1958 361" version="1.1" xmlns="http://www.w3.org/2000/svg" xmlns:xlink="http://www.w3.org/1999/xlink">
    <!-- Generator: Sketch 48.1 (47250) - http://www.bohemiancoding.com/sketch -->
    <title>header-logo</title>
    <desc>Created with Sketch.</desc>
    <defs></defs>
    <g id="Page-1" stroke="none" stroke-width="1" fill="none" fill-rule="evenodd">
        <g id="header-logo" fill-rule="nonzero">
            <path d="M756.77,346 C741.056667,354.666667 720.636667,359 695.51,359 C677.482572,359.150508 659.614263,355.618361 643,348.62 C611.627618,335.613108 586.775514,310.577314 574,279.11 C567.361717,263.050377 563.995958,245.827211 564.1,228.45 L564.1,227.51 C564.012284,210.05984 567.376843,192.764645 574,176.62 C580.326268,161.01156 589.606027,146.771052 601.33,134.68 C613.196862,122.573414 627.364552,112.961689 643,106.41 C659.153333,99.47 676.97,96 696.45,96 C720.316667,96 740.106667,99.77 755.82,107.31 C771.5448,114.863847 785.634361,125.430169 797.29,138.41 L753.47,185.52 C746.045135,177.638994 737.564573,170.824257 728.27,165.27 C719.603333,160.25 708.843333,157.736667 695.99,157.73 C687.436111,157.608628 678.969654,159.463446 671.25,163.15 C663.876099,166.753769 657.302397,171.803923 651.92,178 C646.335143,184.435045 642.019137,191.869298 639.2,199.91 C636.174462,208.456448 634.658536,217.464026 634.72,226.53 L634.72,227.47 C634.645573,236.768689 636.160713,246.011719 639.2,254.8 C642.011859,262.976844 646.432023,270.508123 652.2,276.95 C657.858378,283.240126 664.756064,288.292529 672.46,291.79 C680.756566,295.498265 689.763463,297.348109 698.85,297.21 C710.783333,297.21 721.23,294.776667 730.19,289.91 C739.841167,284.533427 748.780771,277.968983 756.8,270.37 L798.7,312.8 C786.67063,326.12544 772.498739,337.346685 756.77,346 Z" id="Shape" fill="#FFFFFF"></path>
            <polygon id="Shape" fill="#FFFFFF" points="831.48 353.33 831.48 9.33 903.1 9.33 903.1 353.33"></polygon>
            <path d="M956.6,353.33 L956.6,100.75 L1028.23,100.75 L1028.23,353.33 L956.6,353.33 Z M1028.06,38.45 C1028.05448,58.5739536 1011.73729,74.8836808 991.613335,74.8799994 C971.489381,74.876318 955.178161,58.5606219 955.180002,38.4366676 C955.181842,18.3127133 971.496046,2.00000076 991.62,2 C1001.28796,1.99999854 1010.55964,5.84194711 1017.39404,12.680099 C1024.22845,19.5182509 1028.06531,28.7920463 1028.06,38.46 L1028.06,38.45 Z" id="Shape" fill="#FFFFFF"></path>
            <path d="M1258.91,346 C1243.19667,354.666667 1222.77667,359 1197.65,359 C1179.61318,359.157762 1161.73428,355.628942 1145.11,348.63 C1113.73762,335.623108 1088.88551,310.587314 1076.11,279.12 C1069.47172,263.060377 1066.10596,245.837211 1066.21,228.46 L1066.21,227.52 C1066.12228,210.06984 1069.48684,192.774645 1076.11,176.63 C1082.43627,161.02156 1091.71603,146.781052 1103.44,134.69 C1115.31567,122.580111 1129.49384,112.968196 1145.14,106.42 C1161.29333,99.4733333 1179.11,96 1198.59,96 C1222.45667,96 1242.24667,99.77 1257.96,107.31 C1273.6848,114.863847 1287.77436,125.430169 1299.43,138.41 L1255.6,185.53 C1248.17264,177.644827 1239.68865,170.826679 1230.39,165.27 C1221.72333,160.25 1210.96333,157.736667 1198.11,157.73 C1189.55611,157.608628 1181.08965,159.463446 1173.37,163.15 C1166.00327,166.756036 1159.43655,171.806057 1154.06,178 C1148.47514,184.435045 1144.15914,191.869298 1141.34,199.91 C1138.31446,208.456448 1136.79854,217.464026 1136.86,226.53 L1136.86,227.47 C1136.78557,236.768689 1138.30071,246.011719 1141.34,254.8 C1144.15186,262.976844 1148.57202,270.508123 1154.34,276.95 C1159.99838,283.240126 1166.89606,288.292529 1174.6,291.79 C1182.89657,295.498265 1191.90346,297.348109 1200.99,297.21 C1212.92333,297.21 1223.37,294.776667 1232.33,289.91 C1241.98566,284.527733 1250.92869,277.956523 1258.95,270.35 L1300.89,312.76 C1288.84879,326.104117 1274.65953,337.339258 1258.91,346 Z" id="Shape" fill="#FFFFFF"></path>
            <path d="M1478.28,353.33 L1478.28,326 C1469.4107,335.796347 1458.67845,343.727397 1446.71,349.33 C1434.45667,355.136667 1419.53333,358.043333 1401.94,358.05 C1390.52335,358.126768 1379.16207,356.45748 1368.25,353.1 C1358.16196,350.042259 1348.78788,344.99651 1340.68,338.26 C1332.78838,331.620873 1326.43781,323.342266 1322.07,314 C1317.51,304.42 1315.23333,293.346667 1315.24,280.78 L1315.24,279.84 C1315.24,266.02 1317.75333,254.083333 1322.78,244.03 C1327.6713,234.131503 1334.87435,225.556445 1343.78,219.03 C1352.73333,212.43 1363.4,207.483333 1375.78,204.19 C1389.25081,200.760555 1403.11024,199.096616 1417.01,199.24 C1428.3047,199.102633 1439.58649,200.050317 1450.7,202.07 C1460.19487,203.939649 1469.5502,206.458905 1478.7,209.61 L1478.7,205.37 C1478.7,190.29 1474.14333,178.823333 1465.03,170.97 C1455.91667,163.116667 1442.40667,159.19 1424.5,159.19 C1412.2344,159.032183 1399.9883,160.215883 1387.98,162.72 C1377.45,165.08 1387.35,160.61 1375.73,165 L1336.86,118.21 C1350.88361,112.176605 1365.37471,107.29384 1380.19,103.61 C1395.27,99.8433333 1413.49,97.96 1434.85,97.96 C1474.11667,97.96 1502.70333,107.54 1520.61,126.7 C1538.51667,145.86 1547.47,172.563333 1547.47,206.81 L1547.47,353.33 L1478.28,353.33 Z M1479.7,251.54 C1472.94733,248.563352 1465.91175,246.275114 1458.7,244.71 C1450.5736,242.93997 1442.2768,242.071389 1433.96,242.12 C1418.56667,242.12 1406.47333,245.12 1397.68,251.12 C1388.88667,257.12 1384.49667,265.746667 1384.51,277 L1384.51,277.94 C1384.51,287.68 1388.12333,295.22 1395.35,300.56 C1402.57667,305.9 1412,308.566667 1423.62,308.56 C1440.58667,308.56 1454.17333,304.476667 1464.38,296.31 C1474.58667,288.143333 1479.69333,277.476667 1479.7,264.31 L1479.7,251.54 Z" id="Shape" fill="#FFFFFF"></path>
            <path d="M1740.54,171 C1716.66,171 1697.89,178.226667 1684.23,192.68 C1670.57,207.133333 1663.73667,229.573333 1663.73,260 L1663.73,353.3 L1592.1,353.3 L1592.1,100.75 L1663.73,100.75 L1663.73,151.64 C1670.95,134.366667 1680.84667,120.543333 1693.42,110.17 C1705.99333,99.7966667 1722.95,95.0733333 1744.29,96 L1763.76,95 L1744.31,171 L1740.54,171 Z" id="Shape" fill="#FFFFFF"></path>
            <path d="M1949.79,313 C1945.12314,322.954611 1938.0838,331.611291 1929.29,338.21 C1920.01478,345.037305 1909.54493,350.070429 1898.42,353.05 C1886.06224,356.425378 1873.30012,358.09088 1860.49,358 C1841.8179,357.873715 1823.28532,354.77145 1805.59,348.81 C1786.9,342.68 1774.46,333.02 1757.49,319.81 L1796.09,275.4 C1796.09,275.34 1810.34,290.3 1823.97,295.3 C1837.6,300.3 1850.43,302.84 1862.38,302.84 C1872.74667,302.84 1880.36667,301.113333 1885.24,297.66 C1890.11333,294.206667 1892.54667,289.65 1892.54,283.99 L1892.54,283.05 C1892.55274,279.30642 1891.0184,275.723877 1888.3,273.15 C1884.95575,269.99593 1881.03398,267.517232 1876.75,265.85 C1871.27187,263.610912 1865.68098,261.658274 1860,260 C1853.71333,258.113333 1847.11667,256.07 1840.21,253.87 C1831.18077,251.278378 1822.29501,248.210755 1813.59,244.68 C1804.84437,241.19463 1796.66508,236.429276 1789.32,230.54 C1782.03723,224.66534 1776.02537,217.370825 1771.65,209.1 C1767.09,200.62 1764.81333,190.253333 1764.82,178 L1764.82,177.06 C1764.82,164.18 1767.25333,152.793333 1772.12,142.9 C1776.84677,133.183656 1783.59388,124.588681 1791.91,117.69 C1800.52625,110.625961 1810.4578,105.340692 1821.13,102.14 C1832.80127,98.6129777 1844.9378,96.8666658 1857.13,96.96 C1873.68875,97.0455589 1890.13649,99.6693745 1905.9,104.74 C1922.39,109.92 1943.9,118.16 1957.68,127.27 L1924.04,175.66 C1912.3277,168.835052 1900.0247,163.07848 1887.28,158.46 C1875.34,154.22 1864.81667,152.1 1855.71,152.1 C1846.91,152.1 1840.31333,153.75 1835.92,157.05 C1831.52667,160.35 1829.32667,164.513333 1829.32,169.54 L1829.32,170.48 C1829.34915,174.009827 1830.89344,177.357 1833.56,179.67 C1836.94472,182.718099 1840.75455,185.257988 1844.87,187.21 C1850.15011,189.806337 1855.57965,192.087013 1861.13,194.04 C1867.25667,196.24 1873.77667,198.44 1880.69,200.64 C1889.48333,203.466667 1898.43667,206.843333 1907.55,210.77 C1916.29919,214.489375 1924.53346,219.319026 1932.05,225.14 C1939.32007,230.829564 1945.41621,237.876642 1950,245.89 C1954.71333,254.063333 1957.07,263.96 1957.07,275.58 L1957.07,276.52 C1957.08333,290.66 1954.65667,302.82 1949.79,313 Z" id="Shape" fill="#FFFFFF"></path>
            <path d="M495.42,133.54 L495.42,133.65 C495.52,133.9 495.64,134.14 495.74,134.4 L495.42,133.54 Z" id="Shape" fill="#0079F8"></path>
            <path d="M487.9,121.32 L487.62,121.21 C496.142613,118.937667 502.558014,111.90495 504.04,103.21 C506.13,90.3 496.61,77.63 482.79,74.91 C468.97,72.19 456.07,80.48 454,93.39 C453.282296,97.9406353 453.947699,102.601936 455.91,106.77 C450.28,105.5 443.91,104.26 436.58,103.09 C435.517789,79.9288538 430.792541,57.0822776 422.58,35.4 L423.28,37.4 C419.52,27.75 412.67,20.12 403.73,16.27 L405.51,16.96 C383.91,8 340,0 252.19,0 C164.29,0 120.42,8 98.8,17 L100.58,16.31 C91.65,20.13 84.79,27.76 81,37.41 L81.7,35.41 C73.4874593,57.0922776 68.7622109,79.9388538 67.7,103.1 C60.41,104.27 54,105.51 48.37,106.78 C50.3323011,102.611936 50.9977036,97.9506353 50.28,93.4 C48.19,80.49 35.28,72.22 21.48,74.93 C7.68,77.64 -1.8,90.3 0.29,103.22 C1.77198552,111.91495 8.1873867,118.947667 16.71,121.22 L16.43,121.33 C13.1901044,124.950873 10.6322216,129.128183 8.88,133.66 C3.06391165,152.442954 0.120659306,171.997208 0.15,191.66 C0.0413011393,222.626799 7.42093438,253.160846 21.66,280.66 L21.89,281.1 L25.83,325.43 L25.83,325.57 L25.93,326.68 L25.93,326.16 C27.82,345.39 42.58,360.37 60.53,360.37 L82.12,360.37 C96.4,360.37 108.12,347.48 108.12,331.72 L108.12,290.72 L252.12,291.83 L396.24,291.83 L396.24,331.72 C396.24,347.47 407.93,360.37 422.24,360.37 L443.86,360.37 C461.81,360.37 476.57,345.37 478.46,326.16 L478.46,326.68 L478.56,325.57 L478.56,325.43 L482.5,281.1 L482.73,280.66 C496.969066,253.160846 504.348699,222.626799 504.24,191.66 C504.269341,171.997208 501.326088,152.442954 495.51,133.66 C493.740753,129.120158 491.162309,124.939081 487.9,121.32 Z M98.54,48 C98.54,48 109.87,31.26 129.29,30.67 C129.29,30.67 193.1,23.25 255.74,23.25 L256.13,23.25 C318.77,23.25 359.23,25.69 387.57,34.06 C387.57,34.06 407.41,42.43 411.48,58.21 C411.48,58.21 421.57,84.27 419.26,99.99 C383.64,95.77 329.55,92.89 255.98,92.89 L255.9,92.89 C182.32,92.89 122.83,93.99 87.2,98.21 C87.21,67.5 98.52,48 98.54,48 Z M79.69,211.7 C57.7638588,211.474116 40.1507306,193.55627 40.3009338,171.62948 C40.451137,149.70269 58.3080829,132.027821 80.235261,132.102342 C102.162439,132.176862 119.898836,149.972695 119.9,171.9 C119.847094,182.510442 115.580617,192.665127 108.03946,200.129391 C100.498303,207.593655 90.3004274,211.755837 79.69,211.7 Z M360.44,207.58 C345.27,222.18 311.12,246.86 253.62,246.86 C196.12,246.86 162.62,222.09 147.96,207.5 C143.78,203.35 147.45,197.09 154.02,197.09 L354.46,197.09 C361.09,197.08 364.74,203.44 360.44,207.57 L360.44,207.58 Z M428.29,211.7 C406.363859,211.474116 388.750731,193.55627 388.900934,171.62948 C389.051137,149.70269 406.908083,132.027821 428.835261,132.102342 C450.762439,132.176862 468.498836,149.972695 468.5,171.9 C468.447094,182.510442 464.180617,192.665127 456.63946,200.129391 C449.098303,207.593655 438.900427,211.755837 428.29,211.7 Z" id="Shape" fill="#FFFFFF"></path>
            <path d="M8.56,134.4 C8.65,134.14 8.78,133.9 8.88,133.65 L8.88,133.54 L8.56,134.4 Z" id="Shape" fill="#0079F8"></path>
        </g>
    </g>
</svg>

<svg xmlns="http://www.w3.org/2000/svg" viewBox="0 0 1957.74 360.38"><defs><style>.cls-1{fill:#0079f8;}</style></defs><title>Logo_OriginalRecurso 5</title><g id="Capa_2" data-name="Capa 2"><g id="Capa_1-2" data-name="Capa 1"><path class="cls-1" d="M756.77,346q-23.57,13-61.26,13A132.42,132.42,0,0,1,643,348.62a126.94,126.94,0,0,1-69-69.51,130.57,130.57,0,0,1-9.9-50.66v-.94a132.33,132.33,0,0,1,9.9-50.89,130.86,130.86,0,0,1,27.33-41.94A127.17,127.17,0,0,1,643,106.41Q667.23,96,696.45,96q35.8,0,59.37,11.31a133.33,133.33,0,0,1,41.47,31.1l-43.82,47.11h0a117.27,117.27,0,0,0-25.2-20.25q-13-7.53-32.28-7.54a55.58,55.58,0,0,0-24.74,5.42A61.2,61.2,0,0,0,651.92,178a67.5,67.5,0,0,0-12.72,21.91,78.18,78.18,0,0,0-4.48,26.62v.94a81.62,81.62,0,0,0,4.48,27.33,64.79,64.79,0,0,0,13,22.15,61.38,61.38,0,0,0,20.26,14.84,62.35,62.35,0,0,0,26.39,5.42q17.9,0,31.34-7.3a132.28,132.28,0,0,0,26.61-19.54h0L798.7,312.8h0A161.11,161.11,0,0,1,756.77,346Z"/><path class="cls-1" d="M831.48,353.33V9.33H903.1v344Z"/><path class="cls-1" d="M956.6,353.33V100.75h71.63V353.33Zm71.46-314.88A36.44,36.44,0,1,1,991.62,2,36.44,36.44,0,0,1,1028.06,38.46Z"/><path class="cls-1" d="M1258.91,346q-23.57,13-61.26,13a132.42,132.42,0,0,1-52.54-10.37,126.94,126.94,0,0,1-69-69.51,130.57,130.57,0,0,1-9.9-50.66v-.94a132.33,132.33,0,0,1,9.9-50.89,130.86,130.86,0,0,1,27.33-41.94,127.17,127.17,0,0,1,41.7-28.27Q1169.37,96,1198.59,96q35.8,0,59.37,11.31a133.33,133.33,0,0,1,41.47,31.1l-43.83,47.12a117.28,117.28,0,0,0-25.21-20.26q-13-7.53-32.28-7.54a55.58,55.58,0,0,0-24.74,5.42A61.2,61.2,0,0,0,1154.06,178a67.5,67.5,0,0,0-12.72,21.91,78.18,78.18,0,0,0-4.48,26.62v.94a81.62,81.62,0,0,0,4.48,27.33,64.79,64.79,0,0,0,13,22.15,61.38,61.38,0,0,0,20.26,14.84,62.35,62.35,0,0,0,26.39,5.42q17.9,0,31.34-7.3a132.3,132.3,0,0,0,26.62-19.56l41.94,42.41A161.11,161.11,0,0,1,1258.91,346Z"/><path class="cls-1" d="M1478.28,353.33V326a99.48,99.48,0,0,1-31.57,23.33q-18.38,8.71-44.77,8.72a112,112,0,0,1-33.69-4.95,79,79,0,0,1-27.57-14.84A71,71,0,0,1,1322.07,314q-6.84-14.37-6.83-33.22v-.94q0-20.73,7.54-35.81a68.76,68.76,0,0,1,21-25q13.43-9.9,32-14.84a160.41,160.41,0,0,1,41.23-4.95,176.42,176.42,0,0,1,33.69,2.83,211.45,211.45,0,0,1,28,7.54v-4.24q0-22.62-13.67-34.4t-40.53-11.78a168.29,168.29,0,0,0-36.52,3.53c-10.53,2.36-.63-2.11-12.25,2.28l-38.87-46.79a0,0,0,0,1,0,0,281.54,281.54,0,0,1,43.33-14.6q22.62-5.65,54.66-5.65,58.9,0,85.76,28.74t26.86,80.11V353.33Zm1.42-101.79a109.79,109.79,0,0,0-21-6.83,113.14,113.14,0,0,0-24.74-2.59q-23.09,0-36.28,9T1384.51,277v.94q0,14.61,10.84,22.62t28.27,8q25.45,0,40.76-12.25t15.32-32Z"/><path class="cls-1" d="M1740.54,171q-35.82,0-56.31,21.68T1663.73,260v93.3H1592.1V100.75h71.63v50.89q10.83-25.91,29.69-41.47T1744.29,96L1763.76,95l-19.45,76Z"/><path class="cls-1" d="M1949.79,313a67.16,67.16,0,0,1-20.5,25.21,92.4,92.4,0,0,1-30.87,14.84,140.18,140.18,0,0,1-37.93,4.95,175.68,175.68,0,0,1-54.9-9.19c-18.69-6.13-31.13-15.79-48.1-29h0l38.6-44.41c0-.06,14.25,14.9,27.88,19.9s26.46,7.54,38.41,7.54q15.55,0,22.86-5.18t7.3-13.67v-.94a13.57,13.57,0,0,0-4.24-9.9,35.71,35.71,0,0,0-11.55-7.3A170.67,170.67,0,0,0,1860,260q-9.43-2.83-19.79-6.13a266.27,266.27,0,0,1-26.62-9.19,95.05,95.05,0,0,1-24.27-14.14,69,69,0,0,1-17.67-21.44q-6.84-12.72-6.83-31.1v-.94q0-19.32,7.3-34.16a75.89,75.89,0,0,1,19.79-25.21,84.27,84.27,0,0,1,29.22-15.55,121.24,121.24,0,0,1,36-5.18,162,162,0,0,1,48.77,7.78c16.49,5.18,38,13.42,51.78,22.53l-33.64,48.39a225.84,225.84,0,0,0-36.76-17.2q-17.91-6.36-31.57-6.36-13.2,0-19.79,4.95t-6.6,12.49v.94a12.3,12.3,0,0,0,4.24,9.19,47,47,0,0,0,11.31,7.54,148.71,148.71,0,0,0,16.26,6.83q9.19,3.3,19.56,6.6,13.19,4.24,26.86,10.13a110.83,110.83,0,0,1,24.5,14.37A71.31,71.31,0,0,1,1950,245.89q7.07,12.26,7.07,29.69v.94Q1957.09,297.73,1949.79,313Z"/><path class="cls-1" d="M495.42,133.54l0,.11c.1.25.22.49.32.75Z"/><path class="cls-1" d="M487.9,121.32l-.28-.11a22.55,22.55,0,0,0,16.42-18c2.09-12.91-7.43-25.58-21.25-28.3S456.07,80.48,454,93.39a23,23,0,0,0,1.91,13.38c-5.63-1.27-12-2.51-19.33-3.68v0a219.49,219.49,0,0,0-14-67.69l.7,2c-3.76-9.65-10.61-17.28-19.55-21.13l1.78.69C383.91,8,340,0,252.19,0h0C164.29,0,120.42,8,98.8,17l1.78-.69C91.65,20.13,84.79,27.76,81,37.41l.7-2a219.49,219.49,0,0,0-14,67.69v0c-7.29,1.17-13.7,2.41-19.33,3.68a23,23,0,0,0,1.91-13.38c-2.09-12.91-15-21.18-28.8-18.47S-1.8,90.3.29,103.22a22.55,22.55,0,0,0,16.42,18l-.28.11a40.27,40.27,0,0,0-7.55,12.33,195.1,195.1,0,0,0-8.73,58,192.09,192.09,0,0,0,21.51,89l.23.44,3.94,44.33v.14l.1,1.11,0-.52c1.89,19.23,16.65,34.21,34.6,34.21H82.12c14.28,0,26-12.89,26-28.65v-41l144,1.11H396.24v39.89c0,15.75,11.69,28.65,26,28.65h21.62c17.95,0,32.71-15,34.6-34.21l0,.52.1-1.11v-.14l3.94-44.33.23-.44a192.09,192.09,0,0,0,21.51-89,195.1,195.1,0,0,0-8.73-58A40.27,40.27,0,0,0,487.9,121.32ZM98.54,48s11.33-16.74,30.75-17.33c0,0,63.81-7.42,126.45-7.42h.39c62.64,0,103.1,2.44,131.44,10.81,0,0,19.84,8.37,23.91,24.15,0,0,10.09,26.06,7.78,41.78-35.62-4.22-89.71-7.1-163.28-7.1h-.08c-73.58,0-133.07,1.1-168.7,5.32C87.21,67.5,98.52,48,98.54,48ZM79.69,211.7a39.8,39.8,0,1,1,40.21-39.8A40,40,0,0,1,79.69,211.7Zm280.75-4.12c-15.17,14.6-49.32,39.28-106.82,39.28s-91-24.77-105.66-39.36c-4.18-4.15-.51-10.41,6.06-10.41H354.46C361.09,197.08,364.74,203.44,360.44,207.57Zm67.85,4.12a39.8,39.8,0,1,1,40.21-39.8A40,40,0,0,1,428.29,211.7Z"/><path class="cls-1" d="M8.56,134.4c.09-.26.22-.5.32-.75l0-.11Z"/></g></g></svg>
